build/img/social__fb.svg

<svg width="30" height="30" viewBox="0 0 30 30" fill="none" xmlns="http://www.w3.org/2000/svg">
<path d="M29.25 15C29.25 22.8701 22.8701 29.25 15 29.25C7.12994 29.25 0.75 22.8701 0.75 15C0.75 7.12994 7.12994 0.75 15 0.75C22.8701 0.75 29.25 7.12994 29.25 15Z" stroke="white" stroke-width="1.5"/>
<path d="M19.0004 7.00333L16.9255 7C14.5946 7 13.0882 8.54552 13.0882 10.9376V12.7531H11.002C10.8218 12.7531 10.6758 12.8993 10.6758 13.0795V15.71C10.6758 15.8903 10.8219 16.0363 11.002 16.0363H13.0882V22.6738C13.0882 22.854 13.2341 23 13.4144 23H16.1362C16.3165 23 16.4625 22.8539 16.4625 22.6738V16.0363H18.9017C19.0819 16.0363 19.2279 15.8903 19.2279 15.71L19.2289 13.0795C19.2289 12.993 19.1944 12.9101 19.1334 12.8488C19.0723 12.7876 18.989 12.7531 18.9025 12.7531H16.4625V11.2141C16.4625 10.4744 16.6387 10.0989 17.6023 10.0989L19 10.0984C19.1801 10.0984 19.3261 9.95222 19.3261 9.77211V7.32958C19.3261 7.14964 19.1803 7.00366 19.0004 7.00333Z" fill="white"/>
</svg>

<svg width="30" height="30" fill="none" xmlns="http://www.w3.org/2000/svg"><path d="M29.25 15c0 7.87-6.38 14.25-14.25 14.25S.75 22.87.75 15 7.13.75 15 .75 29.25 7.13 29.25 15z" stroke="#fff" stroke-width="1.5"/><path d="M19 7.003L16.925 7c-2.33 0-3.837 1.546-3.837 3.938v1.815h-2.086a.326.326 0 00-.326.326v2.631c0 .18.146.326.326.326h2.086v6.638c0 .18.146.326.326.326h2.722c.18 0 .326-.146.326-.326v-6.638h2.44c.18 0 .326-.146.326-.326v-2.63a.327.327 0 00-.326-.327h-2.44v-1.539c0-.74.177-1.115 1.14-1.115H19c.18 0 .326-.147.326-.327V7.33A.326.326 0 0019 7.003z" fill="#fff"/></svg>
